source/images/gridiron2/vergesense.svg

<?xml version="1.0" encoding="UTF-8"?>
<svg width="179px" height="34px" viewBox="0 0 179 34" version="1.1" xmlns="http://www.w3.org/2000/svg" xmlns:xlink="http://www.w3.org/1999/xlink">
    <!-- Generator: Sketch 52.2 (67145) - http://www.bohemiancoding.com/sketch -->
    <title>vergesense</title>
    <desc>Created with Sketch.</desc>
    <defs>
        <polygon id="path-1" points="0.000170807874 33.7750233 29.5082558 33.7750233 29.5082558 0.00825611681 0.000170807874 0.00825611681"></polygon>
    </defs>
    <g id="Page-1" stroke="none" stroke-width="1" fill="none" fill-rule="evenodd">
        <g id="01---Home-Page" transform="translate(-302.000000, -1247.000000)">
            <g id="Social" transform="translate(244.000000, 898.000000)">
                <g id="Testimonial" transform="translate(0.000000, 299.000000)">
                    <g id="Group-4">
                        <g transform="translate(58.000000, 50.000000)">
                            <g id="vergesense">
                                <polygon id="Fill-1" fill="#7383A0" fill-rule="nonzero" points="47.3908965 18.4972761 47.3908965 10 51 10 51 25 47.3908965 25 37 10 41.5028569 10"></polygon>
                                <polygon id="Fill-2" fill="#7383A0" fill-rule="nonzero" points="63.7647171 10 63.7647171 12.9828848 56.332011 12.9828848 56.332011 16.0727396 63.0169782 16.0727396 63.0169782 18.9269097 56.332011 18.9269097 56.332011 22.0385092 64 22.0385092 64 25 53 25 53 10"></polygon>
                                <g id="Group-22">
                                    <path d="M75.4863192,16.2551341 C75.8904507,15.8931613 76.0923456,15.3193271 76.0923456,14.5329491 C76.0923456,13.7469121 75.8832767,13.2071941 75.465139,12.9151595 C75.0473431,12.623125 74.3156021,12.4771077 73.2705995,12.4771077 L70.8249724,12.4771077 L70.8249724,16.7979225 L73.2077423,16.7979225 C74.322776,16.7979225 75.0818462,16.6171068 75.4863192,16.2551341 M79.4155835,14.5227142 C79.4155835,16.8603551 78.4887801,18.3703376 76.6358562,19.0519789 L80.3352131,24.2707317 L76.322253,24.2707317 L73.0823692,19.6159194 L70.8249724,19.6159194 L70.8249724,24.2707317 L67.5645917,24.2707317 L67.5645917,9.67992168 L73.1032078,9.67992168 C75.3746109,9.67992168 76.9942111,10.0627053 77.9630334,10.8279313 C78.9315141,11.5934985 79.4155835,12.8247517 79.4155835,14.5227142" id="Fill-3" fill="#7383A0" fill-rule="nonzero"></path>
                                    <path d="M92.0403352,16.8395102 L95.3215544,16.8395102 L95.3215544,22.0163001 C93.8724204,23.630678 91.8657694,24.4375257 89.3019433,24.4375257 C87.1559131,24.4375257 85.3549149,23.7279092 83.8989487,22.3083346 C82.4426407,20.8891014 81.7146575,19.0973193 81.7146575,16.9333297 C81.7146575,14.7700224 82.4566469,12.9642527 83.9406258,11.5163618 C85.4249462,10.0694944 87.2150127,9.34554895 89.3125334,9.34554895 C91.4093709,9.34554895 93.2315492,10.0346959 94.7783854,11.4123074 L93.0853377,13.8546851 C92.4304603,13.2839213 91.8275086,12.891244 91.2775071,12.6752887 C90.726481,12.4596744 90.1310447,12.3518672 89.4901736,12.3518672 C88.2497668,12.3518672 87.2047642,12.7725197 86.3548242,13.6145072 C85.5048842,14.4568358 85.0799143,15.5662941 85.0799143,16.9439057 C85.0799143,18.3218584 85.4874619,19.4244935 86.302557,20.2524933 C87.1179939,21.0808343 88.0898907,21.4946636 89.2182475,21.4946636 C90.3472874,21.4946636 91.2877557,21.2790493 92.0403352,20.8474797 L92.0403352,16.8395102 Z" id="Fill-5" fill="#7383A0" fill-rule="nonzero"></path>
                                    <polygon id="Fill-7" fill="#7383A0" fill-rule="nonzero" points="108.552674 9.6797511 108.552674 12.5813327 101.27865 12.5813327 101.27865 15.5869686 107.820933 15.5869686 107.820933 18.3633436 101.27865 18.3633436 101.27865 21.3901317 108.782581 21.3901317 108.782581 24.2709023 98.0179275 24.2709023 98.0179275 9.6797511"></polygon>
                                    <path d="M114.896239,12.5916357 C114.582636,12.849213 114.425834,13.1903748 114.425834,13.614439 C114.425834,14.0391855 114.617481,14.3762533 115.000774,14.6270073 C115.383725,14.8774202 116.26851,15.1732075 117.655128,15.5140282 C119.041746,15.85519 120.117836,16.3665916 120.884422,17.048233 C121.650666,17.7305567 122.0343,18.7253846 122.0343,20.033058 C122.0343,21.3414138 121.543056,22.4024271 120.56057,23.2167805 C119.578083,24.0304515 118.285409,24.4377987 116.683231,24.4377987 C114.370151,24.4377987 112.286637,23.5818237 110.433713,21.8702146 L112.377506,19.4906106 C113.952013,20.8682223 115.408321,21.5570281 116.746089,21.5570281 C117.344941,21.5570281 117.815346,21.4284101 118.156962,21.1708328 C118.498236,20.9135968 118.669044,20.5656117 118.669044,20.1272188 C118.669044,19.6888257 118.487646,19.3411818 118.125533,19.0832635 C117.763079,18.8260275 117.045344,18.5653798 115.972329,18.3006381 C114.272449,17.8973848 113.028626,17.3719956 112.241543,16.7248116 C111.454461,16.0776275 111.060578,15.0619887 111.060578,13.6772128 C111.060578,12.2924368 111.558653,11.224259 112.555146,10.4730206 C113.550956,9.72144108 114.794779,9.34548071 116.285932,9.34548071 C117.261245,9.34548071 118.236899,9.51299118 119.212554,9.84664747 C120.187526,10.1809861 121.037807,10.6538364 121.762374,11.2662219 L120.111345,13.6458258 C118.843267,12.6854553 117.533171,12.2054405 116.181739,12.2054405 C115.638229,12.2054405 115.209842,12.3343997 114.896239,12.5916357" id="Fill-9" fill="#307AD1" fill-rule="nonzero"></path>
                                    <polygon id="Fill-11" fill="#307AD1" fill-rule="nonzero" points="135.139329 9.6797511 135.139329 12.5813327 127.865305 12.5813327 127.865305 15.5869686 134.407589 15.5869686 134.407589 18.3633436 127.865305 18.3633436 127.865305 21.3901317 135.369237 21.3901317 135.369237 24.2709023 124.604583 24.2709023 124.604583 9.6797511"></polygon>
                                    <polygon id="Fill-13" fill="#307AD1" fill-rule="nonzero" points="148.286514 9.6797511 151.546894 9.6797511 151.546894 24.2709023 148.286514 24.2709023 141.326093 15.1281059 141.326093 24.2709023 138.06537 24.2709023 138.06537 9.6797511 141.117024 9.6797511 148.286514 19.0729603"></polygon>
                                    <path d="M158.350173,12.5916357 C158.036569,12.849213 157.880109,13.1903748 157.880109,13.614439 C157.880109,14.0391855 158.071414,14.3762533 158.455048,14.6270073 C158.837999,14.8774202 159.722784,15.1732075 161.109402,15.5140282 C162.495679,15.85519 163.572111,16.3665916 164.338696,17.048233 C165.104599,17.7305567 165.488233,18.7253846 165.488233,20.033058 C165.488233,21.3414138 164.99699,22.4024271 164.014503,23.2167805 C163.032358,24.0304515 161.739684,24.4377987 160.137165,24.4377987 C157.824084,24.4377987 155.74057,23.5818237 153.887645,21.8702146 L155.831781,19.4906106 C157.405946,20.8682223 158.862254,21.5570281 160.200021,21.5570281 C160.799215,21.5570281 161.269278,21.4284101 161.610895,21.1708328 C161.952169,20.9135968 162.122977,20.5656117 162.122977,20.1272188 C162.122977,19.6888257 161.94192,19.3411818 161.579466,19.0832635 C161.217353,18.8260275 160.499618,18.5653798 159.426604,18.3006381 C157.726382,17.8973848 156.4829,17.3719956 155.695477,16.7248116 C154.908393,16.0776275 154.51451,15.0619887 154.51451,13.6772128 C154.51451,12.2924368 155.012586,11.224259 156.00908,10.4730206 C157.005231,9.72144108 158.249054,9.34548071 159.740207,9.34548071 C160.715519,9.34548071 161.690832,9.51299118 162.666487,9.84664747 C163.641459,10.1809861 164.492082,10.6538364 165.216649,11.2662219 L163.565278,13.6458258 C162.297201,12.6854553 160.987104,12.2054405 159.635672,12.2054405 C159.092162,12.2054405 158.663776,12.3343997 158.350173,12.5916357" id="Fill-15" fill="#307AD1" fill-rule="nonzero"></path>
                                    <polygon id="Fill-17" fill="#307AD1" fill-rule="nonzero" points="178.593228 9.6797511 178.593228 12.5813327 171.319546 12.5813327 171.319546 15.5869686 177.861488 15.5869686 177.861488 18.3633436 171.319546 18.3633436 171.319546 21.3901317 178.823478 21.3901317 178.823478 24.2709023 168.058823 24.2709023 168.058823 9.6797511"></polygon>
                                    <g id="Group-21">
                                        <g id="Fill-19-Clipped">
                                            <mask id="mask-2" fill="white">
                                                <use xlink:href="#path-1"></use>
                                            </mask>
                                            <g id="path-1"></g>
                                            <path d="M14.7542134,0.00825611681 L18.4429802,2.11868333 L3.68825442,10.5603922 C3.68825442,14.7809055 3.68825442,19.002101 3.68859603,23.2226143 L5.53297945,24.2781691 L7.37702126,23.2229555 L5.53297945,22.1677419 C5.53297945,18.6503632 5.53297945,15.1329845 5.53263784,11.6156058 L20.287022,3.17389694 L22.1314054,4.22911054 L23.9754472,5.28432415 C19.0575469,8.09788593 14.1396466,10.9121301 9.22140468,13.7260329 L9.22140468,20.0569735 L11.0654465,21.1121871 L12.9101716,20.0573147 L11.0654465,19.0024422 L11.0654465,14.7809055 L25.8198306,6.33953775 L29.5082558,8.44996497 L29.5082558,16.8916738 L29.5082558,25.3333826 L22.1314054,29.5542371 L14.7542134,33.7750916 L11.0654465,31.6646643 C15.9836884,28.8507614 20.9019303,26.0368584 25.8201723,23.2229555 C25.8205139,19.0024422 25.8201723,14.7809055 25.8201723,10.5603922 L23.9757888,9.50517857 L22.131747,10.5603922 L23.9754472,11.6156058 C23.9757888,11.6156058 23.9757888,21.2718509 23.9757888,22.1677419 L9.22140468,30.6094507 L7.37702126,29.5542371 L5.53297945,28.4990235 C10.4508798,25.6851206 15.3691217,22.8712176 20.2873636,20.0573147 L20.2873636,13.7260329 L18.4429802,12.6708194 L16.5985968,13.7260329 L18.4429802,14.7809055 L18.4429802,19.0024422 C13.5250799,21.8163451 8.60717956,24.6305892 3.68859603,27.4438099 L0.000170807874,25.3333826 L0.000170807874,16.8916738 L0.000170807874,8.44996497 L7.37702126,4.22911054 L14.7542134,0.00825611681 Z M13.8321924,17.8076934 L15.6762342,17.8076934 L15.6762342,15.9753131 L13.8321924,15.9753131 L13.8321924,17.8076934 Z" id="Fill-19" fill="#7383A0" fill-rule="nonzero" mask="url(#mask-2)"></path>
                                        </g>
                                    </g>
                                </g>
                            </g>
                        </g>
                    </g>
                </g>
            </g>
        </g>
    </g>
</svg>

<svg width="179" height="34" xmlns="http://www.w3.org/2000/svg" xmlns:xlink="http://www.w3.org/1999/xlink"><defs><path id="a" d="M0 33.775h29.508V.008H0z"/></defs><g fill="none" fill-rule="evenodd"><path fill="#7383A0" fill-rule="nonzero" d="M47.39 18.497V10H51v15h-3.61L37 10h4.503zM63.765 10v2.983h-7.433v3.09h6.685v2.854h-6.685v3.112H64V25H53V10zM75.486 16.255c.404-.362.606-.936.606-1.722 0-.786-.209-1.326-.627-1.618-.418-.292-1.15-.438-2.194-.438h-2.446v4.32h2.383c1.115 0 1.874-.18 2.278-.542m3.93-1.732c0 2.337-.927 3.847-2.78 4.529l3.7 5.219h-4.014l-3.24-4.655h-2.257v4.655h-3.26V9.68h5.538c2.272 0 3.891.383 4.86 1.148.969.765 1.453 1.997 1.453 3.695M92.04 16.84h3.282v5.176c-1.45 1.615-3.456 2.422-6.02 2.422-2.146 0-3.947-.71-5.403-2.13-1.456-1.419-2.184-3.21-2.184-5.375 0-2.163.742-3.969 2.226-5.417 1.484-1.447 3.274-2.17 5.372-2.17 2.096 0 3.919.689 5.465 2.066l-1.693 2.443c-.655-.571-1.257-.964-1.807-1.18a4.86 4.86 0 0 0-1.788-.323c-1.24 0-2.285.42-3.135 1.263-.85.842-1.275 1.951-1.275 3.329 0 1.378.407 2.48 1.223 3.308.815.829 1.787 1.243 2.915 1.243 1.13 0 2.07-.216 2.822-.648V16.84zM108.553 9.68v2.901h-7.274v3.006h6.542v2.776h-6.542v3.027h7.504v2.88H98.018V9.68z"/><path d="M114.896 12.592c-.313.257-.47.598-.47 1.022 0 .425.191.762.575 1.013.383.25 1.268.546 2.654.887 1.387.341 2.463.853 3.23 1.534.766.683 1.15 1.677 1.15 2.985 0 1.308-.492 2.37-1.474 3.184-.983.813-2.276 1.22-3.878 1.22-2.313 0-4.396-.855-6.25-2.567l1.945-2.38c1.574 1.378 3.03 2.067 4.368 2.067.599 0 1.07-.129 1.411-.386.341-.257.512-.605.512-1.044 0-.438-.181-.786-.543-1.044-.363-.257-1.08-.518-2.154-.782-1.7-.404-2.943-.929-3.73-1.576-.788-.647-1.181-1.663-1.181-3.048s.498-2.453 1.494-3.204c.996-.752 2.24-1.128 3.73-1.128.976 0 1.952.168 2.928.502a7.848 7.848 0 0 1 2.55 1.42l-1.652 2.379c-1.268-.96-2.578-1.44-3.93-1.44-.543 0-.971.128-1.285.386M135.14 9.68v2.901h-7.275v3.006h6.543v2.776h-6.543v3.027h7.504v2.88h-10.764V9.68zM148.287 9.68h3.26v14.59h-3.26l-6.96-9.142v9.143h-3.262V9.68h3.052l7.17 9.393zM158.35 12.592c-.313.257-.47.598-.47 1.022 0 .425.191.762.575 1.013.383.25 1.268.546 2.654.887 1.387.341 2.463.853 3.23 1.534.766.683 1.15 1.677 1.15 2.985 0 1.308-.492 2.37-1.474 3.184-.983.813-2.275 1.22-3.878 1.22-2.313 0-4.396-.855-6.25-2.567l1.945-2.38c1.574 1.378 3.03 2.067 4.368 2.067.6 0 1.07-.129 1.41-.386.342-.257.513-.605.513-1.044 0-.438-.181-.786-.544-1.044-.362-.257-1.08-.518-2.152-.782-1.7-.404-2.944-.929-3.732-1.576-.787-.647-1.18-1.663-1.18-3.048s.498-2.453 1.494-3.204c.996-.752 2.24-1.128 3.731-1.128.976 0 1.95.168 2.926.502a7.85 7.85 0 0 1 2.55 1.42l-1.65 2.379c-1.269-.96-2.579-1.44-3.93-1.44-.544 0-.972.128-1.286.386M178.593 9.68v2.901h-7.273v3.006h6.541v2.776h-6.541v3.027h7.503v2.88H168.06V9.68z" fill="#307AD1" fill-rule="nonzero"/><g><mask id="b" fill="#fff"><use xlink:href="#a"/></mask><path d="M14.754.008l3.689 2.11L3.688 10.56v12.663l1.845 1.055 1.844-1.055-1.844-1.055V11.616l14.754-8.442 1.844 1.055 1.844 1.055-14.754 8.442v6.331l1.844 1.055 1.845-1.055-1.845-1.055v-4.221L25.82 6.34l3.688 2.11V25.333l-7.377 4.221-7.377 4.221-3.689-2.11 14.755-8.442V10.56l-1.844-1.055-1.844 1.055 1.843 1.056v10.552L9.222 30.609l-1.844-1.055L5.533 28.5l14.754-8.442v-6.331l-1.844-1.055-1.844 1.055 1.844 1.055v4.221L3.689 27.444 0 25.334V8.45l7.377-4.22L14.754.007zm-.922 17.8h1.844v-1.833h-1.844v1.833z" fill="#7383A0" fill-rule="nonzero" mask="url(#b)"/></g></g></svg>
